_includes/icons/color-txt.svg

<svg fill="#666" height="50" viewBox="0 0 48 48" width="50" xmlns="http://www.w3.org/2000/svg"><path d="m41 45h-32v-42h22l10 10z" fill="#ba68c8"/><path d="m39.5 14h-9.5v-9.5z" fill="#f3e5f5"/><g fill="#4a148c"><path d="m21.246094 24.722656h-2.460938v8.277344h-2.015625v-8.277344h-2.421875v-1.675781h6.898438z"/><path d="m25.519531 26.464844 1.339844-3.417969h2.304688l-2.339844 4.9375 2.394531 5.015625h-2.332031l-1.367188-3.480469-1.363281 3.480469h-2.328125l2.390625-5.019531-2.34375-4.933594h2.304688z"/><path d="m36.683594 24.722656h-2.460938v8.277344h-2.019531v-8.277344h-2.417969v-1.675781h6.894532v1.675781z"/></g></svg>

<svg xmlns="http://www.w3.org/2000/svg" viewBox="0 0 48 48" width="50" height="50" fill="#666"><path d="M 41 45 L 9 45 L 9 3 L 31 3 L 41 13 Z" fill="#ba68c8"/><path d="M 39.5 14 L 30 14 L 30 4.5 Z" fill="#f3e5f5"/><path d="M 21.246094 24.722656 L 18.785156 24.722656 L 18.785156 33 L 16.769531 33 L 16.769531 24.722656 L 14.347656 24.722656 L 14.347656 23.046875 L 21.246094 23.046875 Z" fill="#4a148c"/><path d="M 25.519531 26.464844 L 26.859375 23.046875 L 29.164063 23.046875 L 26.824219 27.984375 L 29.21875 33 L 26.886719 33 L 25.519531 29.519531 L 24.15625 33 L 21.828125 33 L 24.21875 27.980469 L 21.875 23.046875 L 24.179688 23.046875 Z" fill="#4a148c"/><path d="M 36.683594 24.722656 L 34.222656 24.722656 L 34.222656 33 L 32.203125 33 L 32.203125 24.722656 L 29.785156 24.722656 L 29.785156 23.046875 L 36.679688 23.046875 L 36.679688 24.722656 Z" fill="#4a148c"/></svg>
